;FLAVOR:Marlin
;TIME:9890
;Filament used: 9.44066m
;Layer height: 0.2
;MINX:65.179
;MINY:56.22
;MINZ:0.1
;MAXX:156.243
;MAXY:152.295
;MAXZ:14.9
;Generated with Cura_SteamEngine 4.4.1
M140 S65
M105
M190 S65
M104 S210
M105
M109 S210
M82 ;absolute extrusion mode
G21 ;metric values
G90 ;absolute positioning
M82 ;set extruder to absolute mode
M107 ;start with the fan off
G28 X0 Y0 ;move X/Y to min endstops
G28 Z0 ;move Z to min endstops
G1 Z15.0 F100 ;move the platform down 15mm
G92 E0 ;zero the extruded length
G1 F200 E3 ;extrude 3mm of feed stock
G92 E0 ;zero the extruded length again
G1 F100
G0 Y20 F100
M117 Printing...
G5
G92 E0
G92 E0
G1 F3000 E-7
;LAYER_COUNT:75
;LAYER:0
M106 S255
M204 S3000
M205 X10 Y10
G1 F600 Z0.2
G0 F3000 X67.13 Y64.222 Z0.2
M204 S1800
M205 X8 Y8
;TYPE:SKIRT
G1 F600 Z0.1
G1 F3000 E0
G1 F2400 X67.679 Y63.675 E0.01804
G1 X68.282 Y63.187 E0.0361
G1 X68.931 Y62.763 E0.05415
G1 X69.621 Y62.409 E0.07221
G1 X70.343 Y62.127 E0.09025
G1 X71.091 Y61.922 E0.10831
G1 X71.856 Y61.794 E0.12637
G1 X72.497 Y61.749 E0.14133
G1 X72.818 Y61.74 E0.14881
G1 X73.029 Y61.737 E0.15372
G1 X91.931 Y61.737 E0.5938
G1 X94.58 Y61.7 E0.65548
G1 X97.192 Y61.589 E0.71635
G1 X99.812 Y61.403 E0.7775
G1 X102.398 Y61.147 E0.838
G1 X104.992 Y60.815 E0.89889
G1 X107.602 Y60.405 E0.9604
G1 X110.134 Y59.934 E1.02036
G1 X112.735 Y59.374 E1.0823
G1 X115.222 Y58.764 E1.14192
G1 X117.787 Y58.059 E1.20386
G1 X120.255 Y57.303 E1.26395
G1 X121.573 Y56.859 E1.29633
G1 X121.66 Y56.83 E1.29847
G1 X122.383 Y56.596 E1.31616
G1 X123.132 Y56.396 E1.33421
G1 X123.898 Y56.274 E1.35227
G1 X124.448 Y56.235 E1.36511
G1 X124.778 Y56.224 E1.37279
G1 X125.029 Y56.22 E1.37864
G1 X148.016 Y56.22 E1.91382
G1 X148.124 Y56.221 E1.91634
G1 X148.822 Y56.231 E1.93259
G1 X149.595 Y56.282 E1.95063
G1 X150.36 Y56.412 E1.96869
G1 X151.107 Y56.621 E1.98675
G1 X151.828 Y56.905 E2.00479
G1 X152.516 Y57.262 E2.02284
G1 X153.164 Y57.688 E2.0409
G1 X153.765 Y58.179 E2.05896
G1 X154.311 Y58.728 E2.07699
G1 X154.799 Y59.331 E2.09505
G1 X155.221 Y59.981 E2.11309
G1 X155.575 Y60.671 E2.13115
G1 X155.855 Y61.394 E2.1492
G1 X156.06 Y62.142 E2.16726
G1 X156.187 Y62.907 E2.18531
G1 X156.231 Y63.539 E2.20006
G1 X156.24 Y63.859 E2.20752
G1 X156.243 Y64.07 E2.21243
G1 X156.243 Y144.039 E4.07427
G1 X156.242 Y144.132 E4.07644
G1 X156.233 Y144.859 E4.09337
G1 X156.184 Y145.633 E4.11142
G1 X156.055 Y146.397 E4.12946
G1 X155.848 Y147.145 E4.14753
G1 X155.565 Y147.867 E4.16559
G1 X155.209 Y148.556 E4.18364
G1 X154.785 Y149.204 E4.20167
G1 X154.295 Y149.806 E4.21974
G1 X153.747 Y150.354 E4.23779
G1 X153.145 Y150.842 E4.25583
G1 X152.495 Y151.266 E4.2739
G1 X151.806 Y151.621 E4.29194
G1 X151.084 Y151.903 E4.30999
G1 X150.336 Y152.109 E4.32805
G1 X149.571 Y152.237 E4.34611
G1 X148.925 Y152.283 E4.36119
G1 X148.604 Y152.292 E4.36867
G1 X148.393 Y152.295 E4.37358
G1 X125.406 Y152.295 E4.90877
G1 X125.299 Y152.294 E4.91126
G1 X124.596 Y152.284 E4.92763
G1 X123.822 Y152.233 E4.94569
G1 X123.058 Y152.103 E4.96373
G1 X122.308 Y151.893 E4.98186
G1 X121.637 Y151.667 E4.99835
G1 X119.07 Y150.841 E5.06113
G1 X116.554 Y150.109 E5.12214
G1 X114.009 Y149.447 E5.18336
G1 X111.458 Y148.858 E5.24432
G1 X108.891 Y148.344 E5.30527
G1 X106.352 Y147.908 E5.36525
G1 X103.744 Y147.536 E5.42658
G1 X101.135 Y147.239 E5.48772
G1 X98.534 Y147.018 E5.54849
G1 X95.942 Y146.871 E5.60893
G1 X91.955 Y146.785 E5.70178
G1 X73.364 Y146.777 E6.13462
G1 X73.265 Y146.776 E6.13692
G1 X72.599 Y146.767 E6.15243
G1 X71.826 Y146.717 E6.17047
G1 X71.061 Y146.587 E6.18853
G1 X70.314 Y146.379 E6.20659
G1 X69.593 Y146.096 E6.22462
G1 X68.904 Y145.739 E6.24269
G1 X68.256 Y145.314 E6.26073
G1 X67.655 Y144.824 E6.27878
G1 X67.108 Y144.274 E6.29684
G1 X66.62 Y143.672 E6.31488
G1 X66.197 Y143.022 E6.33294
G1 X65.843 Y142.332 E6.351
G1 X65.561 Y141.61 E6.36904
G1 X65.356 Y140.862 E6.3871
G1 X65.229 Y140.097 E6.40515
G1 X65.181 Y139.292 E6.42393
G1 X65.179 Y138.949 E6.43191
G1 X65.179 Y119.964 E6.87393
G1 X65.18 Y119.856 E6.87644
G1 X65.19 Y119.159 E6.89267
G1 X65.248 Y118.33 E6.91202
G1 X65.309 Y117.844 E6.92342
G1 X65.325 Y117.722 E6.92629
G1 X65.565 Y116.033 E6.966
G1 X65.864 Y113.414 E7.02738
G1 X66.085 Y110.813 E7.08815
G1 X66.233 Y108.202 E7.14904
G1 X66.308 Y105.586 E7.20997
G1 X66.308 Y102.971 E7.27085
G1 X66.235 Y100.363 E7.3316
G1 X66.086 Y97.74 E7.39276
G1 X65.867 Y95.147 E7.45335
G1 X65.568 Y92.52 E7.51491
G1 X65.376 Y91.101 E7.54824
G1 X65.265 Y90.321 E7.56659
G1 X65.192 Y89.485 E7.58612
G1 X65.182 Y89.154 E7.59383
G1 X65.179 Y88.927 E7.59912
G1 X65.179 Y69.955 E8.04083
G1 X65.18 Y69.857 E8.04311
G1 X65.189 Y69.168 E8.05915
G1 X65.239 Y68.394 E8.07721
G1 X65.368 Y67.63 E8.09525
G1 X65.576 Y66.882 E8.11333
G1 X65.859 Y66.161 E8.13136
G1 X66.215 Y65.472 E8.14941
G1 X66.64 Y64.824 E8.16746
G1 X67.13 Y64.222 E8.18553
M204 S3000
M205 X10 Y10
G0 F3000 X67.681 Y64.453
M204 S1800
M205 X8 Y8
G1 F2400 X68.225 Y63.942 E8.20291
G1 X68.82 Y63.493 E8.22026
G1 X69.46 Y63.11 E8.23762
G1 X70.138 Y62.798 E8.255
G1 X70.845 Y62.56 E8.27237
G1 X71.573 Y62.399 E8.28973
G1 X72.513 Y62.309 E8.31171
G1 X72.834 Y62.3 E8.31919
G1 X73.029 Y62.297 E8.32373
G1 X91.939 Y62.297 E8.76399
G1 X94.577 Y62.26 E8.82542
G1 X97.221 Y62.147 E8.88703
G1 X99.869 Y61.96 E8.94884
G1 X102.454 Y61.703 E9.00932
G1 X105.081 Y61.367 E9.07098
G1 X107.681 Y60.959 E9.13225
G1 X110.285 Y60.475 E9.19392
G1 X112.818 Y59.93 E9.25424
G1 X115.394 Y59.298 E9.31599
G1 X117.923 Y58.603 E9.37706
G1 X120.453 Y57.828 E9.43866
G1 X121.752 Y57.39 E9.47058
G1 X121.833 Y57.363 E9.47257
G1 X122.556 Y57.129 E9.49026
G1 X123.277 Y56.938 E9.50763
G1 X124.014 Y56.825 E9.52498
G1 X124.467 Y56.795 E9.53555
G1 X124.797 Y56.784 E9.54324
G1 X125.029 Y56.78 E9.54864
G1 X148.016 Y56.78 E10.08383
G1 X148.116 Y56.781 E10.08616
G1 X148.814 Y56.791 E10.10241
G1 X149.558 Y56.841 E10.11977
G1 X150.292 Y56.971 E10.13713
G1 X151.009 Y57.179 E10.15451
G1 X151.699 Y57.463 E10.17188
G1 X152.355 Y57.818 E10.18925
G1 X152.968 Y58.242 E10.2066
G1 X153.534 Y58.729 E10.22398
G1 X154.043 Y59.273 E10.24133
G1 X154.492 Y59.869 E10.2587
G1 X154.874 Y60.51 E10.27607
G1 X155.185 Y61.188 E10.29344
G1 X155.422 Y61.895 E10.3108
G1 X155.582 Y62.624 E10.32818
G1 X155.671 Y63.554 E10.34993
G1 X155.68 Y63.874 E10.35738
G1 X155.683 Y64.07 E10.36195
G1 X155.683 Y144.039 E12.22379
G1 X155.682 Y144.125 E12.2258
G1 X155.673 Y144.852 E12.24272
G1 X155.624 Y145.596 E12.26008
G1 X155.496 Y146.331 E12.27745
G1 X155.289 Y147.048 E12.29483
G1 X155.007 Y147.739 E12.3122
G1 X154.653 Y148.395 E12.32956
G1 X154.231 Y149.01 E12.34692
G1 X153.745 Y149.576 E12.36429
G1 X153.201 Y150.087 E12.38167
G1 X152.606 Y150.536 E12.39902
G1 X151.966 Y150.92 E12.4164
G1 X151.289 Y151.232 E12.43376
G1 X150.582 Y151.471 E12.45113
G1 X149.854 Y151.632 E12.46849
G1 X148.909 Y151.723 E12.49059
G1 X148.588 Y151.732 E12.49807
G1 X148.393 Y151.735 E12.50261
G1 X125.406 Y151.735 E13.0378
G1 X125.307 Y151.734 E13.0401
G1 X124.604 Y151.724 E13.05647
G1 X123.86 Y151.674 E13.07383
G1 X123.125 Y151.544 E13.09121
G1 X122.486 Y151.362 E13.10668
G1 X121.825 Y151.14 E13.12291
G1 X119.221 Y150.301 E13.18661
G1 X116.706 Y149.57 E13.24759
G1 X114.166 Y148.909 E13.30869
G1 X111.558 Y148.307 E13.37101
G1 X109.022 Y147.799 E13.43122
G1 X106.389 Y147.347 E13.49342
G1 X103.813 Y146.98 E13.554
G1 X101.214 Y146.684 E13.6149
G1 X98.578 Y146.459 E13.6765
G1 X95.957 Y146.311 E13.73762
G1 X91.968 Y146.225 E13.83051
G1 X73.364 Y146.217 E14.26365
G1 X73.273 Y146.216 E14.26577
G1 X72.607 Y146.207 E14.28128
G1 X71.863 Y146.157 E14.29864
G1 X71.128 Y146.028 E14.31601
G1 X70.412 Y145.821 E14.33337
G1 X69.721 Y145.538 E14.35075
G1 X69.065 Y145.183 E14.36812
G1 X68.451 Y144.76 E14.38548
G1 X67.886 Y144.273 E14.40284
G1 X67.375 Y143.729 E14.42022
G1 X66.926 Y143.133 E14.43759
G1 X66.544 Y142.493 E14.45495
G1 X66.232 Y141.816 E14.4723
G1 X65.994 Y141.108 E14.48969
G1 X65.834 Y140.38 E14.50705
G1 X65.741 Y139.289 E14.53254
G1 X65.739 Y138.946 E14.54052
G1 X65.739 Y119.964 E14.98247
G1 X65.74 Y119.864 E14.98479
G1 X65.75 Y119.167 E15.00102
G1 X65.803 Y118.4 E15.01892
G1 X65.864 Y117.914 E15.03033
G1 X65.879 Y117.8 E15.033
G1 X66.126 Y116.065 E15.07381
G1 X66.42 Y113.486 E15.13424
G1 X66.643 Y110.858 E15.19564
G1 X66.793 Y108.215 E15.25728
G1 X66.868 Y105.602 E15.31814
G1 X66.868 Y102.955 E15.37977
G1 X66.795 Y100.35 E15.44044
G1 X66.645 Y97.698 E15.50228
G1 X66.425 Y95.102 E15.56294
G1 X66.122 Y92.434 E15.62546
G1 X65.931 Y91.026 E15.65854
G1 X65.819 Y90.242 E15.67698
G1 X65.752 Y89.468 E15.69506
G1 X65.742 Y89.137 E15.70277
G1 X65.739 Y88.927 E15.70766
G1 X65.739 Y69.955 E16.14937
G1 X65.74 Y69.864 E16.15149
G1 X65.749 Y69.175 E16.16753
G1 X65.798 Y68.431 E16.18489
G1 X65.927 Y67.696 E16.20227
G1 X66.134 Y66.98 E16.21962
G1 X66.417 Y66.289 E16.237
G1 X66.771 Y65.633 E16.25436
G1 X67.194 Y65.018 E16.27174
G1 X67.681 Y64.453 E16.2891
M204 S3000
M205 X10 Y10
G0 F3000 X67.748 Y65.222
M204 S1800
M205 X8 Y8
G1 F2400 X68.23 Y64.694 E16.30575
G1 X68.768 Y64.223 E16.3224
G1 X69.355 Y63.814 E16.33905
G1 X69.985 Y63.474 E16.35572
G1 X70.648 Y63.207 E16.37236
G1 X71.337 Y63.015 E16.38901
G1 X72.043 Y62.901 E16.40566
G1 X72.529 Y62.869 E16.417
G1 X72.85 Y62.86 E16.42448
G1 X73.029 Y62.857 E16.42865
G1 X91.946 Y62.857 E16.86907
G1 X94.608 Y62.819 E16.93106
G1 X97.248 Y62.707 E16.99258
G1 X99.893 Y62.52 E17.05431
G1 X102.55 Y62.256 E17.11648
G1 X105.165 Y61.922 E17.17786
G1 X107.761 Y61.514 E17.23904
G1 X110.368 Y61.029 E17.30078
G1 X112.958 Y60.472 E17.36245
G1 X115.531 Y59.841 E17.42413
G1 X118.067 Y59.144 E17.48537
G1 X120.619 Y58.362 E17.54751
G1 X121.931 Y57.92 E17.57974
G1 X122.005 Y57.896 E17.58155
G1 X122.728 Y57.662 E17.59925
G1 X123.42 Y57.48 E17.61591
G1 X124.128 Y57.377 E17.63256
G1 X124.486 Y57.355 E17.64091
G1 X124.816 Y57.344 E17.6486
G1 X125.029 Y57.34 E17.65356
G1 X148.016 Y57.34 E18.18875
G1 X148.108 Y57.341 E18.19089
G1 X148.806 Y57.351 E18.20714
G1 X149.519 Y57.401 E18.22378
G1 X150.223 Y57.53 E18.24045
G1 X150.907 Y57.738 E18.25709
G1 X151.564 Y58.02 E18.27374
G1 X152.186 Y58.374 E18.2904
G1 X152.764 Y58.795 E18.30705
G1 X153.292 Y59.278 E18.32371
G1 X153.762 Y59.816 E18.34034
G1 X154.17 Y60.404 E18.357
G1 X154.509 Y61.034 E18.37366
G1 X154.776 Y61.697 E18.3903
G1 X154.967 Y62.387 E18.40697
G1 X155.08 Y63.093 E18.42362
G1 X155.111 Y63.57 E18.43474
G1 X155.12 Y63.89 E18.4422
G1 X155.123 Y64.07 E18.44639
G1 X155.123 Y144.118 E20.31007
G1 X155.114 Y144.845 E20.327
G1 X155.065 Y145.559 E20.34366
G1 X154.937 Y146.263 E20.36032
G1 X154.731 Y146.948 E20.37698
G1 X154.45 Y147.605 E20.39361
G1 X154.097 Y148.228 E20.41029
G1 X153.677 Y148.807 E20.42694
G1 X153.195 Y149.335 E20.44358
G1 X152.658 Y149.807 E20.46023
G1 X152.07 Y150.215 E20.47689
G1 X151.441 Y150.556 E20.49355
G1 X150.778 Y150.824 E20.5102
G1 X150.089 Y151.016 E20.52685
G1 X149.383 Y151.131 E20.54351
G1 X148.893 Y151.163 E20.55494
G1 X148.572 Y151.172 E20.56241
G1 X148.393 Y151.175 E20.56658
G1 X125.406 Y151.175 E21.10177
G1 X125.315 Y151.174 E21.10389
G1 X124.612 Y151.164 E21.12026
G1 X123.898 Y151.114 E21.13692
G1 X123.195 Y150.985 E21.15356
G1 X122.664 Y150.832 E21.16643
G1 X121.934 Y150.587 E21.18435
G1 X119.372 Y149.762 E21.24702
G1 X116.869 Y149.033 E21.30772
G1 X114.289 Y148.362 E21.36978
G1 X111.697 Y147.764 E21.43171
G1 X109.11 Y147.246 E21.49314
G1 X106.493 Y146.797 E21.55496
G1 X103.885 Y146.425 E21.61629
G1 X101.252 Y146.125 E21.67799
G1 X98.622 Y145.901 E21.73945
G1 X96.001 Y145.753 E21.80057
G1 X91.933 Y145.665 E21.8953
G1 X73.364 Y145.657 E22.32762
G1 X73.281 Y145.656 E22.32956
G1 X72.615 Y145.647 E22.34506
G1 X71.901 Y145.598 E22.36173
G1 X71.197 Y145.469 E22.37839
G1 X70.513 Y145.262 E22.39503
G1 X69.855 Y144.981 E22.41169
G1 X69.233 Y144.627 E22.42835
G1 X68.655 Y144.207 E22.44498
G1 X68.127 Y143.724 E22.46164
G1 X67.656 Y143.186 E22.47829
G1 X67.248 Y142.598 E22.49495
G1 X66.908 Y141.969 E22.5116
G1 X66.641 Y141.305 E22.52826
G1 X66.449 Y140.616 E22.54492
G1 X66.335 Y139.91 E22.56157
G1 X66.301 Y139.285 E22.57614
G1 X66.299 Y138.942 E22.58413
G1 X66.299 Y119.964 E23.02597
G1 X66.3 Y119.872 E23.02812
G1 X66.31 Y119.175 E23.04434
G1 X66.359 Y118.47 E23.0608
G1 X66.42 Y117.984 E23.0722
G1 X66.434 Y117.879 E23.07467
G1 X66.677 Y116.169 E23.11488
G1 X66.978 Y113.531 E23.1767
G1 X67.202 Y110.899 E23.2382
G1 X67.353 Y108.228 E23.30048
G1 X67.428 Y105.618 E23.36127
G1 X67.428 Y102.975 E23.42281
G1 X67.353 Y100.302 E23.48507
G1 X67.203 Y97.653 E23.54684
G1 X66.981 Y95.03 E23.60813
G1 X66.681 Y92.388 E23.67003
G1 X66.486 Y90.951 E23.7038
G1 X66.373 Y90.163 E23.72233
G1 X66.312 Y89.451 E23.73897
G1 X66.302 Y89.12 E23.74668
G1 X66.299 Y88.927 E23.75117
G1 X66.299 Y69.955 E24.19288
G1 X66.3 Y69.871 E24.19484
G1 X66.309 Y69.182 E24.21088
G1 X66.358 Y68.469 E24.22752
G1 X66.486 Y67.765 E24.24418
G1 X66.693 Y67.08 E24.26084
G1 X66.974 Y66.423 E24.27747
G1 X67.327 Y65.801 E24.29413
G1 X67.748 Y65.222 E24.31079
M204 S3000
M205 X10 Y10
G0 F3000 X68.3 Y65.435
M204 S1800
M205 X8 Y8
G1 F2400 X68.777 Y64.947 E24.32668
G1 X69.309 Y64.517 E24.34261
G1 X69.887 Y64.153 E24.35851
G1 X70.503 Y63.858 E24.37441
G1 X71.15 Y63.638 E24.39032
G1 X71.818 Y63.494 E24.40623
G1 X72.544 Y63.428 E24.4232
G1 X72.865 Y63.419 E24.43068
G1 X73.029 Y63.417 E24.4345
G1 X91.954 Y63.417 E24.87511
G1 X94.605 Y63.38 E24.93684
G1 X97.312 Y63.265 E24.99992
G1 X99.915 Y63.08 E25.06068
G1 X102.607 Y62.813 E25.12366
G1 X105.254 Y62.474 E25.18579
G1 X107.847 Y62.067 E25.2469
G1 X110.505 Y61.573 E25.30984
G1 X113.081 Y61.019 E25.37119
G1 X115.66 Y60.386 E25.43302
G1 X118.244 Y59.676 E25.49541
G1 X120.785 Y58.898 E25.55728
G1 X122.11 Y58.451 E25.58983
G1 X122.178 Y58.429 E25.5915
G1 X122.901 Y58.195 E25.60919
G1 X123.562 Y58.023 E25.62509
G1 X124.504 Y57.914 E25.64717
G1 X124.834 Y57.903 E25.65486
G1 X125.029 Y57.9 E25.6594
G1 X148.016 Y57.9 E26.19458
G1 X148.1 Y57.901 E26.19654
G1 X148.798 Y57.911 E26.21279
G1 X149.479 Y57.96 E26.22869
G1 X150.15 Y58.089 E26.2446
G1 X150.801 Y58.296 E26.2605
G1 X151.424 Y58.577 E26.27641
G1 X152.01 Y58.929 E26.29233
G1 X152.55 Y59.347 E26.30823
G1 X153.038 Y59.825 E26.32413
G1 X153.467 Y60.357 E26.34004
G1 X153.831 Y60.935 E26.35595
G1 X154.125 Y61.552 E26.37186
G1 X154.344 Y62.199 E26.38776
G1 X154.487 Y62.867 E26.40367
G1 X154.552 Y63.586 E26.42048
G1 X154.561 Y63.906 E26.42793
G1 X154.563 Y64.07 E26.43175
G1 X154.563 Y144.111 E28.29527
G1 X154.554 Y144.838 E28.3122
G1 X154.505 Y145.52 E28.32812
G1 X154.377 Y146.191 E28.34402
G1 X154.172 Y146.843 E28.35993
G1 X153.892 Y147.466 E28.37583
G1 X153.542 Y148.052 E28.39173
G1 X153.125 Y148.594 E28.40765
G1 X152.648 Y149.083 E28.42355
G1 X152.117 Y149.512 E28.43945
G1 X151.539 Y149.877 E28.45536
G1 X150.923 Y150.172 E28.47126
G1 X150.276 Y150.393 E28.48718
G1 X149.608 Y150.537 E28.50309
G1 X148.878 Y150.604 E28.52016
G1 X148.557 Y150.613 E28.52763
G1 X148.393 Y150.615 E28.53145
G1 X125.406 Y150.615 E29.06664
G1 X125.323 Y150.614 E29.06857
G1 X124.62 Y150.604 E29.08494
G1 X123.939 Y150.555 E29.10084
G1 X123.268 Y150.426 E29.11674
G1 X122.843 Y150.301 E29.12706
G1 X122.132 Y150.062 E29.14452
G1 X119.565 Y149.235 E29.20731
G1 X116.989 Y148.486 E29.26977
G1 X114.412 Y147.816 E29.33176
G1 X111.83 Y147.219 E29.39346
G1 X109.211 Y146.695 E29.45565
G1 X106.592 Y146.246 E29.51751
G1 X103.958 Y145.87 E29.57946
G1 X101.293 Y145.567 E29.64191
G1 X98.664 Y145.343 E29.70334
G1 X96.017 Y145.193 E29.76506
G1 X91.945 Y145.105 E29.85989
G1 X73.364 Y145.097 E30.2925
G1 X73.288 Y145.096 E30.29426
G1 X72.622 Y145.087 E30.30977
G1 X71.941 Y145.038 E30.32567
