;FLAVOR:Marlin
;TIME:36168
;Filament used: 29.3159m
;Layer height: 0.2
;MINX:3.344
;MINY:43.83
;MINZ:0.1
;MAXX:207.944
;MAXY:163.43
;MAXZ:7.9
;Generated with Cura_SteamEngine 4.4.1
M140 S65
M105
M190 S65
M104 S210
M105
M109 S210
M82 ;absolute extrusion mode
G21 ;metric values
G90 ;absolute positioning
M82 ;set extruder to absolute mode
M107 ;start with the fan off
G28 X0 Y0 ;move X/Y to min endstops
G28 Z0 ;move Z to min endstops
G1 Z15.0 F100 ;move the platform down 15mm
G92 E0 ;zero the extruded length
G1 F200 E3 ;extrude 3mm of feed stock
G92 E0 ;zero the extruded length again
G1 F100
G0 Y20 F100
M117 Printing...
G5
G92 E0
G92 E0
G1 F3000 E-7
;LAYER_COUNT:40
;LAYER:0
M106 S255
M204 S3000
M205 X10 Y10
G1 F600 Z0.2
;MESH:02_gehaeuserueckwand_1.stl
G0 F3000 X12.38 Y72.031 Z0.2
M204 S1800
M205 X8 Y8
;TYPE:WALL-INNER
G1 F600 Z0.1
G1 F3000 E0
G1 F1500 X12.993 Y72.59 E0.01932
G1 X13.712 Y72.998 E0.03856
G1 X14.508 Y73.234 E0.05789
G1 X15.336 Y73.284 E0.0772
G1 X16.152 Y73.148 E0.09647
G1 X16.917 Y72.83 E0.11575
G1 X17.591 Y72.35 E0.13502
G1 X18.142 Y71.729 E0.15435
G1 X18.537 Y71 E0.17365
G1 X18.751 Y70.226 E0.19235
G1 X18.799 Y69.605 E0.20685
G1 X18.709 Y68.807 E0.22555
G1 X18.431 Y68.026 E0.24485
G1 X17.987 Y67.327 E0.26413
G1 X17.396 Y66.747 E0.28341
G1 X16.689 Y66.314 E0.30271
G1 X15.906 Y66.051 E0.32194
G1 X15.079 Y65.97 E0.34128
G1 X14.257 Y66.08 E0.36059
G1 X13.482 Y66.37 E0.37986
G1 X12.792 Y66.827 E0.39913
G1 X12.222 Y67.428 E0.41841
G1 X11.801 Y68.142 E0.43771
G1 X11.552 Y68.931 E0.45697
G1 X11.487 Y69.759 E0.47631
G1 X11.61 Y70.577 E0.49557
G1 X11.912 Y71.346 E0.5148
G1 X12.38 Y72.031 E0.53412
M204 S3000
M205 X10 Y10
G0 F3000 X8.079 Y99.97
M204 S1800
M205 X8 Y8
G1 F1500 X7.257 Y100.08 E0.55343
G1 X6.482 Y100.37 E0.57269
G1 X5.792 Y100.827 E0.59196
G1 X5.222 Y101.428 E0.61125
G1 X5.09 Y101.652 E0.6173
G1 X4.801 Y102.142 E0.63054
G1 X4.552 Y102.931 E0.64981
G1 X4.552 Y102.143 E0.6537
G1 X4.552 Y101.574 E0.66341
G1 X4.544 Y45.31 E1.97335
G1 X4.544 Y45.03 E1.97987
G1 X4.824 Y45.03 E1.98409
G1 X37.121 Y45.035 E2.73603
G1 X37.543 Y45.06 E2.74587
G1 X38.847 Y45.214 E2.77644
G1 X198.059 Y64.512 E6.51036
G1 X206.744 Y64.512 E6.71257
G1 X206.744 Y142.748 E8.53407
G1 X198.127 Y142.748 E8.73469
G1 X196.98 Y142.879 E8.76157
G1 X37.884 Y162.162 E12.49276
G1 X37.38 Y162.209 E12.50455
G1 X36.967 Y162.228 E12.51417
G1 X4.824 Y162.23 E13.26253
G1 X4.544 Y162.23 E13.26905
G1 X4.544 Y161.95 E13.27327
G1 X4.544 Y105.656 E14.58391
G1 X4.544 Y105.348 E14.59108
G1 X4.544 Y104.577 E14.60903
G1 X4.544 Y104.138 E14.61925
G1 X4.61 Y104.577 E14.61993
G1 X4.912 Y105.348 E14.628
G1 X5.086 Y105.601 E14.63398
G1 X5.383 Y106.031 E14.64615
G1 X5.993 Y106.59 E14.66541
G1 X6.712 Y106.998 E14.68466
G1 X7.508 Y107.234 E14.70399
G1 X8.336 Y107.284 E14.7233
G1 X9.152 Y107.148 E14.74256
G1 X9.917 Y106.83 E14.76185
G1 X10.591 Y106.35 E14.78111
G1 X11.142 Y105.729 E14.80044
G1 X11.537 Y105 E14.81975
G1 X11.751 Y104.226 E14.83844
G1 X11.799 Y103.605 E14.85295
G1 X11.709 Y102.807 E14.87164
G1 X11.431 Y102.026 E14.89094
G1 X10.987 Y101.327 E14.91022
G1 X10.396 Y100.747 E14.9295
G1 X9.689 Y100.314 E14.9488
G1 X8.906 Y100.051 E14.96803
G1 X8.079 Y99.97 E14.98738
M204 S3000
M205 X10 Y10
G0 F3000 X10.073 Y101.16
G0 X10.96 Y102.256
G0 X11.276 Y103.615
G0 X12.011 Y137.74
G0 X12.38 Y140.031
M204 S1800
M205 X8 Y8
G1 F1500 X12.993 Y140.59 E15.0067
G1 X13.712 Y140.998 E15.02594
G1 X14.508 Y141.234 E15.04527
G1 X15.336 Y141.284 E15.06459
G1 X16.152 Y141.148 E15.08385
G1 X16.917 Y140.83 E15.10313
G1 X17.591 Y140.35 E15.1224
G1 X18.142 Y139.729 E15.14173
G1 X18.537 Y139 E15.16103
G1 X18.751 Y138.226 E15.17973
G1 X18.799 Y137.605 E15.19423
G1 X18.709 Y136.807 E15.21293
G1 X18.431 Y136.026 E15.23223
G1 X17.987 Y135.327 E15.25151
G1 X17.396 Y134.747 E15.27079
G1 X16.689 Y134.314 E15.29009
G1 X15.906 Y134.051 E15.30932
G1 X15.079 Y133.97 E15.32867
G1 X14.257 Y134.08 E15.34797
G1 X13.482 Y134.37 E15.36724
G1 X12.792 Y134.827 E15.38651
G1 X12.222 Y135.428 E15.40579
G1 X11.801 Y136.142 E15.42509
G1 X11.552 Y136.931 E15.44435
G1 X11.487 Y137.759 E15.46369
G1 X11.61 Y138.577 E15.48295
G1 X11.912 Y139.346 E15.50218
G1 X12.38 Y140.031 E15.5215
M204 S3000
M205 X10 Y10
G0 F3000 X12.806 Y139.661
M204 S1800
M205 X8 Y8
G1 F1500 X13.324 Y140.134 E15.53783
G1 X13.933 Y140.479 E15.55413
G1 X14.606 Y140.679 E15.57047
G1 X15.306 Y140.721 E15.5868
G1 X15.997 Y140.606 E15.60311
G1 X16.644 Y140.337 E15.61942
G1 X17.214 Y139.931 E15.63572
G1 X17.68 Y139.406 E15.65206
G1 X18.014 Y138.789 E15.66839
G1 X18.197 Y138.129 E15.68434
G1 X18.237 Y137.615 E15.69634
G1 X18.16 Y136.934 E15.7123
G1 X17.925 Y136.273 E15.72863
G1 X17.549 Y135.682 E15.74494
G1 X17.049 Y135.191 E15.76126
G1 X16.451 Y134.825 E15.77758
G1 X15.788 Y134.602 E15.79387
G1 X15.089 Y134.534 E15.81022
G1 X14.394 Y134.627 E15.82654
G1 X13.738 Y134.872 E15.84285
G1 X13.154 Y135.259 E15.85916
G1 X12.672 Y135.767 E15.87546
G1 X12.316 Y136.371 E15.89178
G1 X12.105 Y137.039 E15.90809
G1 X12.05 Y137.739 E15.92444
G1 X12.154 Y138.431 E15.94073
G1 X12.41 Y139.082 E15.95702
G1 X12.806 Y139.661 E15.97335
M204 S3000
M205 X10 Y10
G0 F3000 X12.731 Y139.726
G0 X12.116 Y138.441
G0 X9.008 Y106.644
G0 X10.24 Y105.96
G0 X11.051 Y104.803
G0 X11.276 Y103.615
G0 X10.96 Y102.256
G0 X10.073 Y101.16
G0 X9.088 Y100.662
G0 X8.088 Y100.435
G0 X8.089 Y100.534
M204 S1800
M205 X8 Y8
G1 F1500 X7.394 Y100.627 E15.98968
G1 X6.738 Y100.872 E16.00598
G1 X6.154 Y101.259 E16.02229
G1 X5.672 Y101.767 E16.0386
G1 X5.316 Y102.371 E16.05492
G1 X5.105 Y103.039 E16.07123
G1 X5.05 Y103.739 E16.08758
G1 X5.154 Y104.431 E16.10387
G1 X5.41 Y105.083 E16.12018
G1 X5.808 Y105.661 E16.13652
G1 X6.324 Y106.134 E16.15281
G1 X6.933 Y106.479 E16.16911
G1 X7.606 Y106.679 E16.18545
G1 X8.306 Y106.721 E16.20178
G1 X8.997 Y106.606 E16.21809
G1 X9.644 Y106.337 E16.2344
G1 X10.214 Y105.931 E16.2507
G1 X10.68 Y105.406 E16.26704
G1 X11.014 Y104.789 E16.28338
G1 X11.197 Y104.129 E16.29932
G1 X11.237 Y103.615 E16.31132
G1 X11.16 Y102.934 E16.32728
G1 X10.925 Y102.273 E16.34361
G1 X10.549 Y101.682 E16.35992
G1 X10.049 Y101.191 E16.37624
G1 X9.451 Y100.825 E16.39256
G1 X8.788 Y100.602 E16.40885
G1 X8.089 Y100.534 E16.4252
M204 S3000
M205 X10 Y10
G0 F3000 X8.088 Y100.435
G0 X12.731 Y71.726
G0 X12.806 Y71.661
M204 S1800
M205 X8 Y8
G1 F1500 X13.324 Y72.134 E16.44153
G1 X13.933 Y72.479 E16.45783
G1 X14.606 Y72.679 E16.47417
G1 X15.306 Y72.721 E16.4905
G1 X15.997 Y72.606 E16.50681
G1 X16.644 Y72.337 E16.52312
G1 X17.214 Y71.931 E16.53941
G1 X17.68 Y71.406 E16.55576
G1 X18.014 Y70.789 E16.57209
G1 X18.197 Y70.129 E16.58804
G1 X18.237 Y69.615 E16.60004
G1 X18.16 Y68.934 E16.616
G1 X17.925 Y68.273 E16.63233
G1 X17.549 Y67.682 E16.64864
G1 X17.049 Y67.191 E16.66495
G1 X16.451 Y66.825 E16.68128
G1 X15.788 Y66.602 E16.69756
G1 X15.089 Y66.534 E16.71392
G1 X14.394 Y66.627 E16.73024
G1 X13.738 Y66.872 E16.74654
G1 X13.154 Y67.259 E16.76285
G1 X12.672 Y67.767 E16.77916
G1 X12.316 Y68.371 E16.79548
G1 X12.105 Y69.039 E16.81179
G1 X12.05 Y69.739 E16.82814
G1 X12.154 Y70.431 E16.84443
G1 X12.41 Y71.082 E16.86072
G1 X12.806 Y71.661 E16.87705
M204 S3000
M205 X10 Y10
G0 F3000 X12.731 Y71.726
G0 X13.918 Y72.515
G0 X15.001 Y72.741
G0 X198.087 Y64.051
G0 X198.093 Y63.952
M204 S1800
M205 X8 Y8
G1 F1500 X207.304 Y63.952 E17.0915
G1 X207.304 Y143.308 E18.93908
G1 X198.159 Y143.308 E19.15199
G1 X197.045 Y143.435 E19.17809
G1 X37.936 Y162.72 E22.9096
G1 X37.432 Y162.767 E22.92138
G1 X36.97 Y162.788 E22.93215
G1 X4.264 Y162.79 E23.69361
G1 X3.984 Y162.79 E23.70013
G1 X3.984 Y162.51 E23.70435
G1 X3.984 Y44.75 E26.44605
G1 X3.984 Y44.47 E26.45257
G1 X4.264 Y44.47 E26.45679
G1 X37.137 Y44.475 E27.22214
G1 X37.591 Y44.502 E27.23273
G1 X38.914 Y44.658 E27.26375
G1 X198.093 Y63.952 E30.99689
M204 S3000
M205 X10 Y10
G0 F3000 X198.127 Y63.392
M204 S1800
M205 X8 Y8
;TYPE:WALL-OUTER
G1 F1500 X207.864 Y63.392 E31.22359
G1 X207.864 Y143.868 E33.09724
G1 X198.191 Y143.868 E33.32245
G1 X197.11 Y143.991 E33.34778
G1 X37.988 Y163.278 E37.07959
G1 X37.484 Y163.325 E37.09137
G1 X36.973 Y163.348 E37.10328
G1 X3.704 Y163.35 E37.87785
G1 X3.424 Y163.35 E37.88437
G1 X3.424 Y163.07 E37.88859
G1 X3.424 Y44.19 E40.65637
G1 X3.424 Y43.91 E40.66289
G1 X3.704 Y43.91 E40.66711
G1 X37.153 Y43.915 E41.44587
G1 X37.637 Y43.944 E41.45716
G1 X38.981 Y44.102 E41.48866
G1 X198.127 Y63.392 E45.22103
M204 S3000
M205 X10 Y10
G0 F3000 X198.327 Y63.392
G0 X198.327 Y64.052
G0 X17.71 Y71.521
G0 X17.218 Y71.083
M204 S1800
M205 X8 Y8
G1 F1500 X17.491 Y70.578 E45.2344
G1 X17.643 Y70.031 E45.24762
G1 X17.675 Y69.625 E45.2571
G1 X17.611 Y69.061 E45.27032
G1 X17.419 Y68.52 E45.28368
G1 X17.111 Y68.037 E45.29702
G1 X16.702 Y67.635 E45.31037
G1 X16.213 Y67.336 E45.32371
G1 X15.67 Y67.153 E45.33705
G1 X15.099 Y67.098 E45.35041
G1 X14.531 Y67.174 E45.36375
G1 X13.994 Y67.374 E45.37709
G1 X13.516 Y67.691 E45.39045
G1 X13.122 Y68.106 E45.40377
G1 X12.831 Y68.6 E45.41712
G1 X12.658 Y69.147 E45.43048
G1 X12.613 Y69.719 E45.44383
G1 X12.698 Y70.285 E45.45716
G1 X12.908 Y70.818 E45.4705
G1 X13.232 Y71.291 E45.48385
G1 X13.655 Y71.678 E45.49719
G1 X14.154 Y71.96 E45.51054
G1 X14.704 Y72.124 E45.5239
G1 X15.276 Y72.158 E45.53724
G1 X15.842 Y72.064 E45.5506
G1 X16.371 Y71.844 E45.56394
G1 X16.837 Y71.512 E45.57726
G1 X17.218 Y71.083 E45.59062
M204 S3000
M205 X10 Y10
G0 F3000 X17.313 Y70.908
G0 X17.893 Y71.222
G0 X11.236 Y104.135
G0 X10.71 Y105.521
G0 X10.218 Y105.083
M204 S1800
M205 X8 Y8
G1 F1500 X10.491 Y104.578 E45.60398
G1 X10.643 Y104.031 E45.6172
G1 X10.675 Y103.625 E45.62668
G1 X10.611 Y103.061 E45.6399
G1 X10.419 Y102.52 E45.65326
G1 X10.111 Y102.037 E45.6666
G1 X9.702 Y101.635 E45.67995
G1 X9.213 Y101.336 E45.6933
G1 X8.67 Y101.153 E45.70664
G1 X8.099 Y101.098 E45.71999
G1 X7.531 Y101.174 E45.73334
G1 X6.994 Y101.374 E45.74668
G1 X6.516 Y101.691 E45.76003
G1 X6.122 Y102.106 E45.77336
G1 X5.831 Y102.6 E45.7867
G1 X5.658 Y103.147 E45.80006
G1 X5.613 Y103.719 E45.81342
G1 X5.698 Y104.285 E45.82674
G1 X5.908 Y104.818 E45.84008
G1 X6.233 Y105.291 E45.85344
G1 X6.655 Y105.678 E45.86677
G1 X7.154 Y105.96 E45.88012
G1 X7.704 Y106.124 E45.89348
G1 X8.276 Y106.158 E45.90682
G1 X8.842 Y106.064 E45.92018
G1 X9.371 Y105.844 E45.93352
G1 X9.837 Y105.512 E45.94684
G1 X10.218 Y105.083 E45.9602
M204 S3000
M205 X10 Y10
G0 F3000 X10.313 Y104.908
G0 X10.893 Y105.222
G0 X18.198 Y136.925
G0 X18.236 Y138.135
G0 X17.71 Y139.521
G0 X17.218 Y139.083
M204 S1800
M205 X8 Y8
G1 F1500 X17.491 Y138.578 E45.97356
G1 X17.643 Y138.031 E45.98678
G1 X17.675 Y137.625 E45.99626
G1 X17.611 Y137.061 E46.00948
G1 X17.419 Y136.52 E46.02285
G1 X17.111 Y136.037 E46.03618
G1 X16.702 Y135.635 E46.04953
G1 X16.213 Y135.336 E46.06288
G1 X15.67 Y135.153 E46.07622
G1 X15.099 Y135.098 E46.08958
G1 X14.531 Y135.174 E46.10292
G1 X13.994 Y135.374 E46.11626
G1 X13.516 Y135.691 E46.12961
G1 X13.122 Y136.106 E46.14294
G1 X12.831 Y136.6 E46.15628
G1 X12.658 Y137.147 E46.16964
G1 X12.613 Y137.719 E46.183
G1 X12.698 Y138.285 E46.19633
G1 X12.908 Y138.818 E46.20966
G1 X13.232 Y139.291 E46.22301
G1 X13.655 Y139.678 E46.23636
G1 X14.154 Y139.96 E46.2497
G1 X14.704 Y140.124 E46.26307
G1 X15.276 Y140.158 E46.27641
G1 X15.842 Y140.064 E46.28977
G1 X16.371 Y139.844 E46.3031
G1 X16.837 Y139.512 E46.31643
G1 X17.218 Y139.083 E46.32978
M204 S3000
M205 X10 Y10
G0 F3000 X17.313 Y138.908
G0 X17.893 Y139.222
G0 X18.596 Y140.047
M204 S1800
M205 X8 Y8
;TYPE:SKIN
G1 F1500 X19.05 Y139.207 E46.35201
G1 X19.295 Y138.322 E46.37339
G1 X19.351 Y137.595 E46.39037
G1 X19.249 Y136.683 E46.41174
G1 X18.928 Y135.783 E46.43398
G1 X18.417 Y134.979 E46.45616
G1 X17.736 Y134.311 E46.47837
G1 X16.923 Y133.813 E46.50057
G1 X16.022 Y133.509 E46.52271
G1 X15.069 Y133.416 E46.545
G1 X14.123 Y133.543 E46.56722
G1 X13.231 Y133.877 E46.5894
G1 X12.436 Y134.403 E46.61159
G1 X11.78 Y135.094 E46.63378
G1 X11.296 Y135.916 E46.65599
G1 X11.008 Y136.825 E46.67819
G1 X10.933 Y137.779 E46.70047
G1 X11.076 Y138.72 E46.72263
G1 X11.423 Y139.605 E46.74476
G1 X11.962 Y140.394 E46.767
G1 X12.669 Y141.038 E46.78927
G1 X13.496 Y141.507 E46.8114
G1 X14.412 Y141.78 E46.83366
G1 X15.365 Y141.836 E46.85588
G1 X16.305 Y141.68 E46.87807
G1 X17.186 Y141.314 E46.90028
G1 X17.961 Y140.762 E46.92243
G1 X18.596 Y140.047 E46.9447
M204 S3000
M205 X10 Y10
G0 F3000 X5.094 Y161.68
M204 S1800
M205 X8 Y8
G1 F1500 X5.094 Y106.512 E48.22912
G1 X5.667 Y107.038 E48.24723
G1 X6.496 Y107.507 E48.26941
G1 X7.412 Y107.78 E48.29166
G1 X8.365 Y107.836 E48.31389
G1 X9.305 Y107.68 E48.33607
G1 X10.186 Y107.314 E48.35828
G1 X10.961 Y106.762 E48.38044
G1 X11.596 Y106.047 E48.4027
G1 X12.05 Y105.207 E48.42493
G1 X12.295 Y104.322 E48.44631
G1 X12.351 Y103.595 E48.46329
G1 X12.249 Y102.683 E48.48465
G1 X11.928 Y101.783 E48.5069
G1 X11.417 Y100.979 E48.52908
G1 X10.736 Y100.311 E48.55129
G1 X9.923 Y99.813 E48.57348
G1 X9.022 Y99.509 E48.59562
G1 X8.069 Y99.416 E48.61792
G1 X7.123 Y99.543 E48.64014
G1 X6.231 Y99.877 E48.66231
G1 X5.436 Y100.403 E48.68451
G1 X5.102 Y100.755 E48.69581
G1 X5.094 Y45.58 E49.9804
G1 X37.088 Y45.585 E50.72528
G1 X37.51 Y45.61 E50.73513
G1 X38.782 Y45.76 E50.76495
G1 X198.027 Y65.062 E54.49964
G1 X206.194 Y65.062 E54.68978
G1 X206.194 Y142.198 E56.48567
G1 X198.096 Y142.198 E56.67421
G1 X196.915 Y142.333 E56.70188
G1 X37.833 Y161.614 E60.43275
G1 X37.348 Y161.659 E60.44409
G1 X36.941 Y161.678 E60.45358
G1 X5.094 Y161.68 E61.19504
M204 S3000
M205 X10 Y10
G0 F3000 X15.365 Y73.836
M204 S1800
M205 X8 Y8
G1 F1500 X16.305 Y73.68 E61.21723
G1 X17.186 Y73.314 E61.23944
G1 X17.961 Y72.762 E61.26159
G1 X18.596 Y72.047 E61.28386
G1 X19.05 Y71.207 E61.30609
G1 X19.295 Y70.322 E61.32747
G1 X19.351 Y69.595 E61.34444
G1 X19.249 Y68.683 E61.36581
G1 X18.928 Y67.783 E61.38805
G1 X18.417 Y66.979 E61.41023
G1 X17.736 Y66.311 E61.43244
G1 X16.923 Y65.813 E61.45464
G1 X16.022 Y65.509 E61.47678
G1 X15.069 Y65.416 E61.49907
G1 X14.123 Y65.543 E61.52129
G1 X13.231 Y65.877 E61.54347
G1 X12.436 Y66.403 E61.56566
G1 X11.78 Y67.094 E61.58785
G1 X11.296 Y67.916 E61.61006
G1 X11.008 Y68.825 E61.63226
G1 X10.933 Y69.779 E61.65454
G1 X11.076 Y70.72 E61.6767
G1 X11.423 Y71.605 E61.69883
G1 X11.962 Y72.394 E61.72108
G1 X12.669 Y73.038 E61.74334
G1 X13.496 Y73.507 E61.76548
G1 X14.412 Y73.78 E61.78773
G1 X15.365 Y73.836 E61.80996
M204 S3000
M205 X10 Y10
G0 F3000 X6.195 Y161.419
M204 S1800
M205 X8 Y8
G1 F1500 X5.353 Y160.577 E61.83768
M204 S3000
M205 X10 Y10
G0 F3000 X5.353 Y159.785
M204 S1800
M205 X8 Y8
G1 F1500 X6.987 Y161.419 E61.89148
M204 S3000
M205 X10 Y10
G0 F3000 X7.779 Y161.419
M204 S1800
M205 X8 Y8
G1 F1500 X5.353 Y158.993 E61.97136
M204 S3000
M205 X10 Y10
G0 F3000 X5.353 Y158.201
M204 S1800
M205 X8 Y8
G1 F1500 X8.571 Y161.419 E62.07731
M204 S3000
M205 X10 Y10
G0 F3000 X9.363 Y161.419
M204 S1800
M205 X8 Y8
G1 F1500 X5.353 Y157.409 E62.20935
M204 S3000
M205 X10 Y10
G0 F3000 X5.353 Y156.617
M204 S1800
M205 X8 Y8
G1 F1500 X10.155 Y161.419 E62.36746
M204 S3000
M205 X10 Y10
G0 F3000 X10.947 Y161.419
M204 S1800
M205 X8 Y8
G1 F1500 X5.353 Y155.825 E62.55164
M204 S3000
M205 X10 Y10
G0 F3000 X5.353 Y155.033
M204 S1800
M205 X8 Y8
G1 F1500 X11.739 Y161.419 E62.76191
M204 S3000
M205 X10 Y10
G0 F3000 X12.531 Y161.419
M204 S1800
M205 X8 Y8
G1 F1500 X5.353 Y154.241 E62.99825
M204 S3000
M205 X10 Y10
G0 F3000 X5.353 Y153.449
M204 S1800
M205 X8 Y8
G1 F1500 X13.322 Y161.419 E63.26065
M204 S3000
M205 X10 Y10
G0 F3000 X14.114 Y161.419
M204 S1800
M205 X8 Y8
G1 F1500 X5.353 Y152.657 E63.54913
M204 S3000
M205 X10 Y10
