;FLAVOR:Marlin
;TIME:17723
;Filament used: 15.8264m
;Layer height: 0.2
;MINX:14.341
;MINY:12.835
;MINZ:0.1
;MAXX:199.01
;MAXY:197.431
;MAXZ:19.9
;Generated with Cura_SteamEngine 4.4.1
M140 S65
M105
M190 S65
M104 S210
M105
M109 S210
M82 ;absolute extrusion mode
G21 ;metric values
G90 ;absolute positioning
M82 ;set extruder to absolute mode
M107 ;start with the fan off
G28 X0 Y0 ;move X/Y to min endstops
G28 Z0 ;move Z to min endstops
G1 Z15.0 F100 ;move the platform down 15mm
G92 E0 ;zero the extruded length
G1 F200 E3 ;extrude 3mm of feed stock
G92 E0 ;zero the extruded length again
G1 F100
G0 Y20 F100
M117 Printing...
G5
G92 E0
G92 E0
G1 F3000 E-7
;LAYER_COUNT:100
;LAYER:0
M106 S255
M204 S3000
M205 X10 Y10
G1 F600 Z0.2
G0 F3000 X59.133 Y99.646 Z0.2
M204 S1800
M205 X8 Y8
;TYPE:SKIRT
G1 F600 Z0.1
G1 F3000 E0
G1 F2400 X143.36 Y15.419 E2.77325
G1 X143.842 Y14.951 E2.78889
G1 X144.426 Y14.44 E2.80695
G1 X145.059 Y13.992 E2.82501
G1 X145.734 Y13.612 E2.84304
G1 X146.446 Y13.303 E2.86111
G1 X147.185 Y13.069 E2.87916
G1 X147.944 Y12.912 E2.89721
G1 X148.716 Y12.835 E2.91527
G1 X149.491 Y12.837 E2.93331
G1 X150.262 Y12.919 E2.95137
G1 X151.021 Y13.08 E2.96943
G1 X151.758 Y13.319 E2.98747
G1 X152.468 Y13.632 E3.00553
G1 X153.141 Y14.016 E3.02357
G1 X153.588 Y14.326 E3.03624
G1 X153.926 Y14.579 E3.04607
G1 X156.081 Y16.149 E3.10814
G1 X158.245 Y17.631 E3.16921
G1 X160.52 Y19.097 E3.23222
G1 X161.473 Y19.693 E3.25839
G1 X162.109 Y20.137 E3.27645
G1 X162.622 Y20.576 E3.29217
G1 X162.851 Y20.79 E3.29947
G1 X163.034 Y20.967 E3.30539
G1 X165.878 Y23.811 E3.39904
G1 X166.351 Y24.299 E3.41486
G1 X166.896 Y24.927 E3.43422
G1 X167.178 Y25.291 E3.44494
G1 X167.247 Y25.382 E3.4476
G1 X168.327 Y26.821 E3.48949
G1 X169.976 Y28.894 E3.55116
G1 X171.638 Y30.865 E3.61118
G1 X173.397 Y32.836 E3.67269
G1 X175.173 Y34.717 E3.73292
G1 X177.032 Y36.577 E3.79414
G1 X178.93 Y38.373 E3.85498
G1 X180.885 Y40.117 E3.91598
G1 X182.876 Y41.796 E3.97661
G1 X184.971 Y43.465 E4.03898
G1 X186.038 Y44.278 E4.07021
G1 X186.768 Y44.825 E4.09144
G1 X187.379 Y45.336 E4.10999
G1 X187.621 Y45.561 E4.11768
G1 X187.818 Y45.751 E4.12405
G1 X190.662 Y48.595 E4.2177
G1 X191.135 Y49.083 E4.23352
G1 X191.645 Y49.667 E4.25157
G1 X192.041 Y50.22 E4.26741
G1 X192.195 Y50.457 E4.27399
G1 X192.265 Y50.568 E4.27704
G1 X193.407 Y52.395 E4.3272
G1 X194.846 Y54.557 E4.38767
G1 X196.378 Y56.721 E4.4494
G1 X197.032 Y57.593 E4.47478
G1 X197.093 Y57.675 E4.47716
G1 X197.568 Y58.327 E4.49594
G1 X197.992 Y58.976 E4.51399
G1 X198.346 Y59.666 E4.53204
G1 X198.628 Y60.388 E4.55009
G1 X198.834 Y61.136 E4.56815
G1 X198.961 Y61.901 E4.58621
G1 X199.01 Y62.675 E4.60426
G1 X198.978 Y63.449 E4.6223
G1 X198.867 Y64.217 E4.64037
G1 X198.677 Y64.968 E4.6584
G1 X198.411 Y65.697 E4.67647
G1 X198.071 Y66.394 E4.69452
G1 X197.661 Y67.052 E4.71257
G1 X197.063 Y67.804 E4.73494
G1 X196.861 Y68.027 E4.74195
G1 X196.605 Y68.295 E4.75058
G1 X112.495 Y152.404 E7.51995
G1 X112.424 Y152.475 E7.52229
G1 X111.895 Y152.99 E7.53948
G1 X111.312 Y153.502 E7.55755
G1 X110.68 Y153.951 E7.5756
G1 X110.005 Y154.332 E7.59364
G1 X109.294 Y154.642 E7.6117
G1 X108.555 Y154.877 E7.62975
G1 X107.796 Y155.034 E7.6478
G1 X107.137 Y155.106 E7.66323
G1 X107 Y155.115 E7.66643
G1 X104.312 Y155.326 E7.72921
G1 X101.74 Y155.601 E7.78943
G1 X99.119 Y155.956 E7.85101
G1 X96.565 Y156.376 E7.91127
G1 X93.967 Y156.88 E7.97288
G1 X91.462 Y157.439 E8.03264
G1 X88.88 Y158.092 E8.09465
G1 X86.382 Y158.8 E8.1551
G1 X83.876 Y159.587 E8.21625
G1 X81.413 Y160.438 E8.27692
G1 X78.962 Y161.364 E8.33792
G1 X76.538 Y162.358 E8.39892
G1 X74.166 Y163.411 E8.45934
G1 X71.796 Y164.544 E8.5205
G1 X69.444 Y165.752 E8.58206
G1 X67.176 Y166.997 E8.6423
G1 X64.916 Y168.324 E8.70331
G1 X62.706 Y169.707 E8.76401
G1 X60.517 Y171.164 E8.82523
G1 X58.376 Y172.678 E8.88628
G1 X56.291 Y174.244 E8.947
G1 X54.254 Y175.865 E9.0076
G1 X52.254 Y177.55 E9.06849
G1 X50.307 Y179.289 E9.12927
G1 X48.375 Y181.114 E9.19115
G1 X47.419 Y182.056 E9.22239
G1 X47.419 Y182.055 E9.22242
G1 X34.664 Y194.81 E9.64239
G1 X34.158 Y195.302 E9.65882
G1 X33.575 Y195.813 E9.67687
G1 X32.943 Y196.261 E9.6949
G1 X32.267 Y196.642 E9.71297
G1 X31.556 Y196.951 E9.73102
G1 X30.817 Y197.186 E9.74907
G1 X30.058 Y197.343 E9.76712
G1 X29.036 Y197.429 E9.791
G1 X28.911 Y197.431 E9.79391
G1 X28.136 Y197.403 E9.81196
G1 X27.369 Y197.296 E9.82999
G1 X26.616 Y197.111 E9.84805
G1 X25.886 Y196.848 E9.86611
G1 X25.187 Y196.512 E9.88417
G1 X24.527 Y196.106 E9.90221
G1 X23.912 Y195.634 E9.92026
G1 X23.561 Y195.316 E9.93129
G1 X23.096 Y194.866 E9.94635
G1 X23.006 Y194.777 E9.9493
G1 X17.019 Y188.784 E10.14652
G1 X16.951 Y188.714 E10.1488
G1 X16.474 Y188.224 E10.16472
G1 X15.962 Y187.642 E10.18277
G1 X15.513 Y187.009 E10.20083
G1 X15.132 Y186.334 E10.21888
G1 X14.822 Y185.623 E10.23694
G1 X14.587 Y184.885 E10.25497
G1 X14.43 Y184.125 E10.27304
G1 X14.343 Y183.089 E10.29724
G1 X14.341 Y182.952 E10.30043
G1 X14.369 Y182.177 E10.31849
G1 X14.478 Y181.409 E10.33655
G1 X14.665 Y180.657 E10.35459
G1 X14.928 Y179.927 E10.37266
G1 X15.265 Y179.229 E10.3907
G1 X15.672 Y178.569 E10.40875
G1 X16.145 Y177.955 E10.4268
G1 X16.449 Y177.62 E10.43733
G1 X16.809 Y177.247 E10.4494
G1 X16.904 Y177.151 E10.45255
G1 X29.769 Y164.291 E10.87605
G1 X31.625 Y162.382 E10.93804
G1 X33.4 Y160.451 E10.99911
G1 X35.124 Y158.466 E11.06032
G1 X36.759 Y156.47 E11.12039
G1 X38.385 Y154.367 E11.18228
G1 X39.911 Y152.275 E11.24257
G1 X41.396 Y150.113 E11.30364
G1 X42.815 Y147.917 E11.36451
G1 X44.169 Y145.682 E11.42535
G1 X45.454 Y143.422 E11.48588
G1 X46.691 Y141.095 E11.54723
G1 X47.858 Y138.742 E11.60838
G1 X48.951 Y136.373 E11.66913
G1 X49.975 Y133.976 E11.72981
G1 X50.943 Y131.52 E11.79127
G1 X51.817 Y129.105 E11.85107
G1 X52.652 Y126.576 E11.91308
G1 X53.394 Y124.098 E11.9733
G1 X54.076 Y121.555 E12.0346
G1 X54.689 Y118.988 E12.09604
G1 X55.209 Y116.491 E12.15543
G1 X55.677 Y113.886 E12.21705
G1 X56.069 Y111.276 E12.2785
G1 X56.38 Y108.709 E12.3387
G1 X56.638 Y105.919 E12.40393
G1 X56.741 Y104.604 E12.43464
G1 X56.841 Y103.835 E12.4527
G1 X57.02 Y103.081 E12.47074
G1 X57.275 Y102.349 E12.48879
G1 X57.605 Y101.647 E12.50685
G1 X58.005 Y100.982 E12.52491
G1 X58.471 Y100.363 E12.54295
G1 X58.753 Y100.044 E12.55287
G1 X58.965 Y99.818 E12.56008
G1 X59.133 Y99.646 E12.56568
M204 S3000
M205 X10 Y10
G0 F3000 X59.529 Y100.042
M204 S1800
M205 X8 Y8
G1 F2400 X143.678 Y15.893 E15.33636
G1 X143.751 Y15.821 E15.33874
G1 X144.233 Y15.353 E15.35438
G1 X144.795 Y14.862 E15.37176
G1 X145.406 Y14.435 E15.38911
G1 X146.06 Y14.076 E15.40648
G1 X146.748 Y13.789 E15.42384
G1 X147.464 Y13.577 E15.44122
G1 X148.197 Y13.442 E15.45858
G1 X148.941 Y13.387 E15.47595
G1 X149.687 Y13.412 E15.49333
G1 X150.425 Y13.517 E15.51068
G1 X151.148 Y13.7 E15.52804
G1 X151.848 Y13.96 E15.54543
G1 X152.515 Y14.292 E15.56278
G1 X153.252 Y14.774 E15.58328
G1 X153.585 Y15.023 E15.59296
G1 X155.77 Y16.615 E15.6559
G1 X157.919 Y18.086 E15.71653
G1 X160.247 Y19.588 E15.78104
G1 X161.176 Y20.168 E15.80653
G1 X161.787 Y20.596 E15.8239
G1 X162.24 Y20.985 E15.8378
G1 X162.469 Y21.199 E15.8451
G1 X162.638 Y21.363 E15.85058
G1 X165.476 Y24.201 E15.94403
G1 X165.949 Y24.689 E15.95985
G1 X166.453 Y25.27 E15.97776
G1 X166.735 Y25.634 E15.98848
G1 X166.799 Y25.718 E15.99094
G1 X167.902 Y27.187 E16.03371
G1 X169.522 Y29.224 E16.0943
G1 X171.205 Y31.221 E16.15511
G1 X172.987 Y33.216 E16.21738
G1 X174.783 Y35.119 E16.27831
G1 X176.647 Y36.984 E16.3397
G1 X178.551 Y38.785 E16.40072
G1 X180.51 Y40.533 E16.46184
G1 X182.524 Y42.232 E16.52319
G1 X184.605 Y43.89 E16.58514
G1 X185.703 Y44.726 E16.61727
G1 X186.433 Y45.273 E16.6385
G1 X186.998 Y45.746 E16.65566
G1 X187.24 Y45.971 E16.66335
G1 X187.422 Y46.147 E16.66925
G1 X190.26 Y48.985 E16.76269
G1 X190.733 Y49.473 E16.77851
G1 X191.222 Y50.036 E16.79588
G1 X191.571 Y50.525 E16.80986
G1 X191.725 Y50.762 E16.81644
G1 X191.791 Y50.864 E16.81927
G1 X192.954 Y52.724 E16.87034
G1 X194.395 Y54.889 E16.9309
G1 X195.921 Y57.044 E16.99237
G1 X196.584 Y57.929 E17.01812
G1 X196.64 Y58.005 E17.02032
G1 X197.115 Y58.657 E17.0391
G1 X197.522 Y59.282 E17.05646
G1 X197.859 Y59.948 E17.07384
G1 X198.123 Y60.645 E17.09119
G1 X198.31 Y61.367 E17.10856
G1 X198.42 Y62.105 E17.12593
G1 X198.449 Y62.851 E17.14331
G1 X198.399 Y63.595 E17.16067
G1 X198.27 Y64.329 E17.17802
G1 X198.062 Y65.046 E17.1954
G1 X197.779 Y65.736 E17.21277
G1 X197.424 Y66.392 E17.23013
G1 X197.001 Y67.006 E17.24749
G1 X196.648 Y67.428 E17.2603
G1 X196.446 Y67.651 E17.26731
G1 X196.209 Y67.899 E17.27529
G1 X112.099 Y152.008 E20.04467
G1 X112.033 Y152.074 E20.04684
G1 X111.504 Y152.589 E20.06403
G1 X110.942 Y153.08 E20.08141
G1 X110.332 Y153.508 E20.09876
G1 X109.678 Y153.868 E20.11614
G1 X108.99 Y154.156 E20.1335
G1 X108.275 Y154.369 E20.15087
G1 X107.542 Y154.504 E20.16823
G1 X107.1 Y154.547 E20.17856
G1 X106.993 Y154.554 E20.18106
G1 X104.247 Y154.769 E20.24519
G1 X101.675 Y155.045 E20.30541
G1 X99.056 Y155.4 E20.36695
G1 X96.437 Y155.831 E20.42874
G1 X93.882 Y156.325 E20.48933
G1 X91.313 Y156.899 E20.55062
G1 X88.758 Y157.545 E20.61198
G1 X86.206 Y158.269 E20.67374
G1 X83.703 Y159.054 E20.73481
G1 X81.24 Y159.906 E20.79549
G1 X78.728 Y160.855 E20.85801
G1 X76.319 Y161.842 E20.91862
G1 X73.919 Y162.908 E20.97976
G1 X71.536 Y164.047 E21.04125
G1 X69.225 Y165.234 E21.10174
G1 X66.873 Y166.525 E21.16421
G1 X64.654 Y167.828 E21.22412
G1 X62.393 Y169.243 E21.28622
G1 X60.185 Y170.713 E21.34797
G1 X58.075 Y172.205 E21.40814
G1 X55.942 Y173.806 E21.47023
G1 X53.885 Y175.443 E21.53144
G1 X51.899 Y177.117 E21.59191
G1 X49.908 Y178.895 E21.65406
G1 X47.993 Y180.705 E21.71541
G1 X47.026 Y181.657 E21.747
G1 X47.026 Y181.656 E21.74703
G1 X34.274 Y194.408 E22.1669
G1 X33.768 Y194.9 E22.18333
G1 X33.206 Y195.391 E22.2007
G1 X32.595 Y195.818 E22.21806
G1 X31.941 Y196.178 E22.23544
G1 X31.253 Y196.466 E22.2528
G1 X30.538 Y196.678 E22.27017
G1 X29.805 Y196.813 E22.28752
G1 X29.027 Y196.869 E22.30568
G1 X28.902 Y196.871 E22.30859
G1 X28.157 Y196.843 E22.32595
G1 X27.419 Y196.735 E22.34331
G1 X26.696 Y196.549 E22.36069
G1 X25.998 Y196.287 E22.37805
G1 X25.332 Y195.952 E22.39541
G1 X24.705 Y195.547 E22.41279
G1 X23.951 Y194.913 E22.43572
G1 X23.486 Y194.463 E22.45079
G1 X23.402 Y194.381 E22.45352
G1 X17.415 Y188.388 E22.65075
G1 X17.352 Y188.324 E22.65284
G1 X16.875 Y187.834 E22.66876
G1 X16.384 Y187.272 E22.68613
G1 X15.956 Y186.661 E22.7035
G1 X15.596 Y186.008 E22.72086
G1 X15.308 Y185.32 E22.73823
G1 X15.095 Y184.605 E22.7556
G1 X14.959 Y183.872 E22.77295
G1 X14.903 Y183.081 E22.79142
G1 X14.901 Y182.944 E22.79461
G1 X14.93 Y182.198 E22.81199
G1 X15.039 Y181.46 E22.82936
G1 X15.226 Y180.738 E22.84672
G1 X15.489 Y180.04 E22.86409
G1 X15.825 Y179.375 E22.88143
G1 X16.231 Y178.749 E22.89881
G1 X16.852 Y178.009 E22.9213
G1 X17.212 Y177.636 E22.93337
G1 X17.299 Y177.547 E22.93626
G1 X30.17 Y164.681 E23.35997
G1 X32.043 Y162.755 E23.42252
G1 X33.823 Y160.819 E23.48375
G1 X35.55 Y158.829 E23.5451
G1 X37.191 Y156.826 E23.60538
G1 X38.832 Y154.704 E23.66784
G1 X40.374 Y152.589 E23.72877
G1 X41.867 Y150.416 E23.79016
G1 X43.287 Y148.218 E23.85108
G1 X44.648 Y145.972 E23.91222
G1 X45.964 Y143.657 E23.97422
G1 X47.187 Y141.356 E24.03489
G1 X48.354 Y139.004 E24.09602
G1 X49.467 Y136.59 E24.15791
G1 X50.491 Y134.193 E24.2186
G1 X51.459 Y131.739 E24.28002
G1 X52.358 Y129.252 E24.34159
G1 X53.179 Y126.768 E24.40249
G1 X53.936 Y124.236 E24.46402
G1 X54.621 Y121.686 E24.5255
G1 X55.232 Y119.129 E24.58671
G1 X55.766 Y116.559 E24.64782
G1 X56.226 Y113.998 E24.7084
G1 X56.623 Y111.357 E24.77058
G1 X56.939 Y108.755 E24.8316
G1 X57.192 Y106.014 E24.89569
G1 X57.299 Y104.648 E24.92759
G1 X57.397 Y103.908 E24.94497
G1 X57.573 Y103.183 E24.96234
G1 X57.826 Y102.482 E24.97969
G1 X58.153 Y101.811 E24.99707
G1 X58.549 Y101.179 E25.01443
G1 X59.162 Y100.427 E25.03702
G1 X59.374 Y100.201 E25.04424
G1 X59.529 Y100.042 E25.04941
M204 S3000
M205 X10 Y10
G0 F3000 X59.925 Y100.438
M204 S1800
M205 X8 Y8
G1 F2400 X144.141 Y16.222 E27.82229
G1 X144.623 Y15.754 E27.83793
G1 X145.163 Y15.286 E27.85457
G1 X145.752 Y14.88 E27.87122
G1 X146.383 Y14.543 E27.88788
G1 X147.047 Y14.278 E27.90452
G1 X147.737 Y14.089 E27.92118
G1 X148.444 Y13.978 E27.93784
G1 X149.158 Y13.946 E27.95448
G1 X149.872 Y13.995 E27.97114
G1 X150.576 Y14.123 E27.9878
G1 X151.261 Y14.329 E28.00446
G1 X151.918 Y14.609 E28.02108
G1 X152.541 Y14.962 E28.03776
G1 X152.917 Y15.223 E28.04841
G1 X153.268 Y15.486 E28.05862
G1 X155.427 Y17.058 E28.1208
G1 X157.618 Y18.559 E28.18264
G1 X159.925 Y20.046 E28.24654
G1 X160.88 Y20.643 E28.27276
G1 X161.464 Y21.055 E28.2894
G1 X161.858 Y21.394 E28.3015
G1 X162.087 Y21.608 E28.3088
G1 X162.242 Y21.759 E28.31384
G1 X165.074 Y24.591 E28.40708
G1 X165.547 Y25.079 E28.42291
G1 X166.01 Y25.613 E28.43936
G1 X166.292 Y25.977 E28.45008
G1 X166.351 Y26.054 E28.45234
G1 X167.446 Y27.512 E28.49479
G1 X169.1 Y29.592 E28.55666
G1 X170.789 Y31.596 E28.61768
G1 X172.574 Y33.596 E28.68009
G1 X174.376 Y35.504 E28.7412
G1 X176.262 Y37.39 E28.80329
G1 X178.171 Y39.197 E28.86449
G1 X180.134 Y40.949 E28.92575
G1 X182.172 Y42.668 E28.98783
G1 X184.266 Y44.337 E29.05017
G1 X185.367 Y45.174 E29.08237
G1 X186.097 Y45.721 E29.10361
G1 X186.617 Y46.156 E29.11939
G1 X186.859 Y46.381 E29.12709
G1 X187.026 Y46.543 E29.1325
G1 X189.858 Y49.375 E29.22575
G1 X190.331 Y49.863 E29.24157
G1 X190.799 Y50.403 E29.25821
G1 X191.102 Y50.83 E29.2704
G1 X191.256 Y51.067 E29.27698
G1 X191.316 Y51.161 E29.27957
G1 X192.473 Y53.012 E29.3304
G1 X193.943 Y55.22 E29.39215
G1 X195.464 Y57.368 E29.45343
G1 X196.136 Y58.265 E29.47953
G1 X196.188 Y58.334 E29.48154
G1 X196.663 Y58.986 E29.50032
G1 X197.051 Y59.587 E29.51697
G1 X197.37 Y60.228 E29.53364
G1 X197.615 Y60.899 E29.55028
G1 X197.784 Y61.594 E29.56693
G1 X197.874 Y62.304 E29.58359
G1 X197.885 Y63.019 E29.60024
G1 X197.815 Y63.731 E29.6169
G1 X197.667 Y64.431 E29.63355
G1 X197.441 Y65.11 E29.65021
G1 X197.141 Y65.759 E29.66686
G1 X196.771 Y66.371 E29.68351
G1 X196.233 Y67.052 E29.70372
G1 X196.031 Y67.275 E29.71072
G1 X195.813 Y67.504 E29.71808
G1 X111.703 Y151.613 E32.48746
G1 X111.642 Y151.673 E32.48945
G1 X111.113 Y152.188 E32.50664
G1 X110.574 Y152.657 E32.52328
G1 X109.985 Y153.064 E32.53994
G1 X109.355 Y153.402 E32.55659
G1 X108.691 Y153.668 E32.57324
G1 X108.001 Y153.858 E32.58991
G1 X107.064 Y153.989 E32.61193
G1 X106.864 Y154.002 E32.6166
G1 X104.248 Y154.207 E32.67769
G1 X101.578 Y154.492 E32.74021
G1 X98.96 Y154.848 E32.80172
G1 X96.349 Y155.277 E32.86333
G1 X93.757 Y155.779 E32.9248
G1 X91.199 Y156.35 E32.98582
G1 X88.603 Y157.006 E33.04816
G1 X86.073 Y157.724 E33.10939
G1 X83.519 Y158.526 E33.17171
G1 X81.036 Y159.384 E33.23288
G1 X78.538 Y160.328 E33.29505
G1 X76.117 Y161.32 E33.35596
G1 X73.657 Y162.412 E33.41863
G1 X71.303 Y163.538 E33.47938
G1 X68.95 Y164.746 E33.54096
G1 X66.599 Y166.037 E33.60341
G1 X64.352 Y167.356 E33.66407
G1 X62.088 Y168.773 E33.72625
G1 X59.886 Y170.238 E33.78783
G1 X57.735 Y171.76 E33.84918
G1 X55.599 Y173.364 E33.91137
G1 X53.534 Y175.007 E33.97281
G1 X51.526 Y176.699 E34.03394
G1 X49.547 Y178.467 E34.09573
G1 X47.587 Y180.318 E34.15849
G1 X46.633 Y181.258 E34.18967
G1 X46.633 Y181.257 E34.1897
G1 X33.947 Y193.943 E34.60739
G1 X33.884 Y194.007 E34.60948
G1 X33.378 Y194.499 E34.62592
G1 X32.838 Y194.968 E34.64257
G1 X32.249 Y195.374 E34.65922
G1 X31.618 Y195.711 E34.67588
G1 X30.954 Y195.977 E34.69253
G1 X30.264 Y196.166 E34.70919
G1 X29.558 Y196.278 E34.72583
G1 X29.018 Y196.309 E34.73842
G1 X28.893 Y196.311 E34.74134
G1 X28.179 Y196.283 E34.75797
