;FLAVOR:Marlin
;TIME:1071
;Filament used: 0.73786m
;Layer height: 0.2
;MINX:139.35
;MINY:54.016
;MINZ:0.1
;MAXX:173.341
;MAXY:172.162
;MAXZ:14.9
;Generated with Cura_SteamEngine 4.4.1
M140 S65
M105
M190 S65
M104 S210
M105
M109 S210
M82 ;absolute extrusion mode
G21 ;metric values
G90 ;absolute positioning
M82 ;set extruder to absolute mode
M107 ;start with the fan off
G28 X0 Y0 ;move X/Y to min endstops
G28 Z0 ;move Z to min endstops
G1 Z15.0 F100 ;move the platform down 15mm
G92 E0 ;zero the extruded length
G1 F200 E3 ;extrude 3mm of feed stock
G92 E0 ;zero the extruded length again
G1 F100
G0 Y20 F100
M117 Printing...
G5
G92 E0
G92 E0
G1 F3000 E-7
;LAYER_COUNT:75
;LAYER:0
M106 S255
M204 S3000
M205 X10 Y10
G1 F600 Z0.2
G0 F3000 X140.18 Y68.81 Z0.2
M204 S1800
M205 X8 Y8
;TYPE:SKIRT
G1 F600 Z0.1
G1 F3000 E0
G1 F2400 X140.691 Y67.769 E0.027
G1 X140.923 Y67.376 E0.03762
G1 X141.351 Y66.73 E0.05567
G1 X141.703 Y66.29 E0.06879
G1 X142.121 Y65.805 E0.08369
G1 X142.417 Y65.48 E0.09393
G1 X144.359 Y63.477 E0.15888
G1 X146.145 Y61.524 E0.2205
G1 X147.836 Y59.566 E0.28073
G1 X149.233 Y57.865 E0.33198
G1 X149.636 Y57.413 E0.34608
G1 X149.95 Y57.088 E0.3566
G1 X150.717 Y56.396 E0.38065
G1 X151.06 Y56.127 E0.3908
G1 X151.694 Y55.68 E0.40886
G1 X152.134 Y55.424 E0.42071
G1 X152.676 Y55.132 E0.43504
G1 X153.377 Y54.8 E0.4531
G1 X153.931 Y54.596 E0.46685
G1 X154.355 Y54.459 E0.47722
G1 X155.104 Y54.259 E0.49527
G1 X155.587 Y54.173 E0.50669
G1 X156.145 Y54.092 E0.51982
G1 X156.917 Y54.02 E0.53787
G1 X157.411 Y54.016 E0.54937
G1 X157.856 Y54.027 E0.55974
G1 X158.629 Y54.086 E0.57779
G1 X159.123 Y54.167 E0.58944
G1 X159.717 Y54.284 E0.60354
G1 X160.469 Y54.473 E0.62159
G1 X161.159 Y54.722 E0.63867
G1 X161.672 Y54.936 E0.65161
G1 X162.371 Y55.271 E0.66966
G1 X162.82 Y55.535 E0.68178
G1 X163.198 Y55.776 E0.69222
G1 X163.829 Y56.226 E0.71026
G1 X164.192 Y56.533 E0.72133
G1 X164.61 Y56.91 E0.73444
G1 X165.158 Y57.458 E0.75248
G1 X165.49 Y57.853 E0.7645
G1 X165.759 Y58.196 E0.77464
G1 X166.045 Y58.586 E0.7859
G1 X166.167 Y58.764 E0.79093
G1 X166.408 Y59.138 E0.80129
G1 X167.092 Y60.274 E0.83216
G1 X168.512 Y62.558 E0.89478
G1 X169.951 Y64.735 E0.95553
G1 X171.473 Y66.899 E1.01713
G1 X171.916 Y67.61 E1.03663
G1 X172.138 Y68.015 E1.04739
G1 X172.561 Y68.925 E1.07075
G1 X172.716 Y69.327 E1.08078
G1 X172.957 Y70.064 E1.09883
G1 X173.066 Y70.521 E1.10977
G1 X173.177 Y71.062 E1.12263
G1 X173.293 Y71.828 E1.14067
G1 X173.327 Y72.363 E1.15315
G1 X173.341 Y72.863 E1.16479
G1 X173.292 Y73.958 E1.19031
G1 X173.156 Y75.105 E1.2172
G1 X173.129 Y75.31 E1.22202
G1 X173.014 Y76.098 E1.24056
G1 X172.711 Y78.663 E1.30069
G1 X172.478 Y81.273 E1.3617
G1 X172.317 Y83.892 E1.42279
G1 X172.232 Y86.506 E1.48368
G1 X172.216 Y88.281 E1.52501
G1 X172.216 Y110.499 E2.04229
G1 X172.215 Y110.606 E2.04478
G1 X172.205 Y111.312 E2.06122
G1 X172.199 Y111.522 E2.06611
G1 X172.179 Y111.996 E2.07716
G1 X172.174 Y112.105 E2.0797
G1 X172.075 Y113.851 E2.12042
G1 X172.001 Y116.471 E2.18144
G1 X171.996 Y118.66 E2.2324
G1 X172.373 Y158.117 E3.15109
G1 X172.373 Y158.22 E3.15349
G1 X172.37 Y158.952 E3.17053
G1 X172.327 Y159.726 E3.18858
G1 X172.204 Y160.492 E3.20664
G1 X172.003 Y161.241 E3.22469
G1 X171.726 Y161.965 E3.24274
G1 X171.377 Y162.657 E3.26079
G1 X170.957 Y163.309 E3.27884
G1 X170.473 Y163.914 E3.29688
G1 X169.779 Y164.6 E3.3196
G1 X169.135 Y165.159 E3.33945
G1 X169.039 Y165.242 E3.34241
G1 X163.464 Y169.918 E3.51182
G1 X163.374 Y169.991 E3.51452
G1 X162.829 Y170.434 E3.53087
G1 X162.203 Y170.892 E3.54893
G1 X161.533 Y171.282 E3.56698
G1 X160.827 Y171.602 E3.58502
G1 X160.091 Y171.847 E3.60308
G1 X159.334 Y172.015 E3.62114
G1 X158.564 Y172.104 E3.63918
G1 X158.129 Y172.119 E3.64932
G1 X157.085 Y172.125 E3.67362
G1 X156.966 Y172.125 E3.67639
G1 X156.459 Y172.12 E3.6882
G1 X154.033 Y172.16 E3.74469
G1 X153.956 Y172.162 E3.74648
G1 X153.181 Y172.143 E3.76453
G1 X152.412 Y172.044 E3.78258
G1 X151.658 Y171.866 E3.80062
G1 X150.925 Y171.612 E3.81868
G1 X150.223 Y171.283 E3.83673
G1 X149.558 Y170.884 E3.85479
G1 X149.012 Y170.48 E3.8706
G1 X148.242 Y169.854 E3.89371
G1 X148.125 Y169.757 E3.89724
G1 X147.7 Y169.397 E3.91021
G1 X146.38 Y168.297 E3.95022
G1 X146.361 Y168.281 E3.95079
G1 X142.693 Y165.204 E4.06226
G1 X142.602 Y165.127 E4.06504
G1 X142.056 Y164.654 E4.08186
G1 X141.497 Y164.117 E4.0999
G1 X140.996 Y163.525 E4.11796
G1 X140.559 Y162.884 E4.13602
G1 X140.19 Y162.202 E4.15407
G1 X139.893 Y161.486 E4.17212
G1 X139.672 Y160.743 E4.19017
G1 X139.528 Y159.981 E4.20822
G1 X139.461 Y159.089 E4.22905
G1 X139.451 Y158.457 E4.24377
G1 X139.45 Y158.338 E4.24654
G1 X139.45 Y117.286 E5.20231
G1 X139.451 Y117.179 E5.20481
G1 X139.461 Y116.473 E5.22124
G1 X139.479 Y116.046 E5.23119
G1 X139.571 Y114.755 E5.26133
G1 X139.722 Y112.089 E5.3235
G1 X139.797 Y109.456 E5.38482
G1 X139.806 Y108.108 E5.41621
G1 X139.806 Y82.634 E6.0093
G1 X139.769 Y80.019 E6.07019
G1 X139.658 Y77.411 E6.13096
G1 X139.416 Y74.149 E6.20712
G1 X139.371 Y73.654 E6.21869
G1 X139.35 Y72.594 E6.24337
G1 X139.367 Y72.257 E6.25123
G1 X139.493 Y71.212 E6.27573
G1 X139.611 Y70.6 E6.29024
G1 X139.797 Y69.848 E6.30828
G1 X140.008 Y69.242 E6.32322
G1 X140.18 Y68.81 E6.33405
M204 S3000
M205 X10 Y10
G0 F3000 X140.701 Y69.017
M204 S1800
M205 X8 Y8
G1 F2400 X141.173 Y68.054 E6.35901
G1 X141.405 Y67.661 E6.36964
G1 X141.819 Y67.04 E6.38702
G1 X142.127 Y66.655 E6.3985
G1 X142.545 Y66.17 E6.4134
G1 X142.819 Y65.87 E6.42286
G1 X144.761 Y63.867 E6.48782
G1 X146.552 Y61.909 E6.5496
G1 X148.296 Y59.889 E6.61173
G1 X149.666 Y58.221 E6.66198
G1 X150.039 Y57.802 E6.67504
G1 X150.353 Y57.477 E6.68557
G1 X151.063 Y56.836 E6.70784
G1 X151.406 Y56.567 E6.71798
G1 X152.017 Y56.139 E6.73535
G1 X152.4 Y55.917 E6.74566
G1 X152.942 Y55.625 E6.75999
G1 X153.617 Y55.307 E6.77737
G1 X154.103 Y55.129 E6.78942
G1 X154.527 Y54.992 E6.79979
G1 X155.248 Y54.801 E6.81716
G1 X155.667 Y54.727 E6.82706
G1 X156.225 Y54.646 E6.84019
G1 X156.968 Y54.579 E6.85756
G1 X157.397 Y54.576 E6.86755
G1 X157.842 Y54.587 E6.87791
G1 X158.586 Y54.645 E6.89528
G1 X159.015 Y54.716 E6.90541
G1 X159.609 Y54.833 E6.9195
G1 X160.332 Y55.016 E6.93687
G1 X160.944 Y55.238 E6.95202
G1 X161.457 Y55.452 E6.96497
G1 X162.129 Y55.776 E6.98233
G1 X162.519 Y56.007 E6.99289
G1 X162.897 Y56.248 E7.00333
G1 X163.503 Y56.682 E7.02068
G1 X163.816 Y56.949 E7.03026
G1 X164.234 Y57.326 E7.04336
G1 X164.761 Y57.854 E7.06073
G1 X165.05 Y58.199 E7.07121
G1 X165.319 Y58.542 E7.08136
G1 X165.583 Y58.902 E7.09175
G1 X165.705 Y59.08 E7.09678
G1 X165.928 Y59.427 E7.10638
G1 X166.622 Y60.581 E7.13773
G1 X168.03 Y62.844 E7.19978
G1 X169.486 Y65.047 E7.26126
G1 X171.015 Y67.221 E7.32314
G1 X171.425 Y67.88 E7.34121
G1 X171.647 Y68.285 E7.35197
G1 X172.038 Y69.126 E7.37356
G1 X172.193 Y69.528 E7.38359
G1 X172.424 Y70.237 E7.40095
G1 X172.517 Y70.633 E7.41042
G1 X172.628 Y71.174 E7.42328
G1 X172.739 Y71.912 E7.44066
G1 X172.767 Y72.378 E7.45153
G1 X172.781 Y72.878 E7.46317
G1 X172.736 Y73.893 E7.48683
G1 X172.6 Y75.04 E7.51372
G1 X172.575 Y75.229 E7.51816
G1 X172.459 Y76.021 E7.53679
G1 X172.153 Y78.621 E7.59774
G1 X171.92 Y81.224 E7.65859
G1 X171.757 Y83.875 E7.72043
G1 X171.672 Y86.481 E7.78113
G1 X171.656 Y88.276 E7.82292
G1 X171.656 Y110.499 E8.34032
G1 X171.655 Y110.598 E8.34263
G1 X171.645 Y111.304 E8.35907
G1 X171.64 Y111.498 E8.36358
G1 X171.62 Y111.972 E8.37463
G1 X171.615 Y112.073 E8.37698
G1 X171.515 Y113.839 E8.41817
G1 X171.441 Y116.454 E8.47907
G1 X171.436 Y118.666 E8.53057
G1 X171.813 Y158.123 E9.44926
G1 X171.813 Y158.218 E9.45147
G1 X171.81 Y158.95 E9.46851
G1 X171.767 Y159.694 E9.48586
G1 X171.644 Y160.43 E9.50324
G1 X171.444 Y161.148 E9.52059
G1 X171.168 Y161.841 E9.53796
G1 X170.819 Y162.501 E9.55534
G1 X170.401 Y163.119 E9.57271
G1 X169.92 Y163.689 E9.59007
G1 X169.412 Y164.177 E9.60647
G1 X168.768 Y164.736 E9.62633
G1 X168.679 Y164.813 E9.62907
G1 X163.104 Y169.489 E9.79848
G1 X163.021 Y169.557 E9.80098
G1 X162.476 Y170 E9.81733
G1 X161.873 Y170.439 E9.83469
G1 X161.226 Y170.81 E9.85206
G1 X160.543 Y171.111 E9.86943
G1 X159.832 Y171.336 E9.8868
G1 X159.101 Y171.485 E9.90417
G1 X158.126 Y171.559 E9.92693
G1 X157.082 Y171.565 E9.95124
G1 X156.972 Y171.565 E9.9538
G1 X156.456 Y171.56 E9.96581
G1 X154.092 Y171.599 E10.02086
G1 X153.942 Y171.603 E10.02435
G1 X153.196 Y171.582 E10.04173
G1 X152.457 Y171.483 E10.05909
G1 X151.732 Y171.304 E10.07647
G1 X151.031 Y171.05 E10.09383
G1 X150.362 Y170.721 E10.11119
G1 X149.731 Y170.323 E10.12856
G1 X149.365 Y170.045 E10.13926
G1 X148.595 Y169.419 E10.16236
G1 X148.487 Y169.33 E10.16562
G1 X148.062 Y168.97 E10.17859
G1 X146.739 Y167.867 E10.21869
G1 X146.721 Y167.852 E10.21924
G1 X143.053 Y164.775 E10.33071
G1 X142.969 Y164.704 E10.33327
G1 X142.423 Y164.231 E10.35009
G1 X141.886 Y163.713 E10.36746
G1 X141.408 Y163.14 E10.38483
G1 X140.993 Y162.52 E10.4022
G1 X140.648 Y161.859 E10.41956
G1 X140.375 Y161.165 E10.43692
G1 X140.178 Y160.445 E10.4543
G1 X140.059 Y159.709 E10.47166
G1 X140.021 Y159.08 E10.48633
G1 X140.011 Y158.448 E10.50105
G1 X140.01 Y158.338 E10.50361
G1 X140.01 Y117.286 E11.45939
G1 X140.011 Y117.187 E11.46169
G1 X140.021 Y116.481 E11.47813
G1 X140.038 Y116.086 E11.48733
G1 X140.127 Y114.83 E11.51665
G1 X140.282 Y112.1 E11.58031
G1 X140.356 Y109.476 E11.64143
G1 X140.366 Y108.112 E11.67319
G1 X140.366 Y82.634 E12.26637
G1 X140.329 Y80.023 E12.32716
G1 X140.216 Y77.378 E12.3888
G1 X139.968 Y74.027 E12.46703
G1 X139.929 Y73.603 E12.47695
G1 X139.909 Y72.622 E12.49979
G1 X139.926 Y72.285 E12.50765
G1 X140.043 Y71.318 E12.53032
G1 X140.161 Y70.706 E12.54484
G1 X140.341 Y69.982 E12.5622
G1 X140.529 Y69.449 E12.57536
G1 X140.701 Y69.017 E12.58619
M204 S3000
M205 X10 Y10
G0 F3000 X141.221 Y69.225
M204 S1800
M205 X8 Y8
G1 F2400 X141.656 Y68.338 E12.60919
G1 X141.888 Y67.945 E12.61982
G1 X142.285 Y67.351 E12.63645
G1 X142.551 Y67.021 E12.64632
G1 X142.969 Y66.536 E12.66122
G1 X143.222 Y66.26 E12.66994
G1 X145.164 Y64.256 E12.73491
G1 X146.959 Y62.294 E12.79682
G1 X148.699 Y60.28 E12.85879
G1 X150.098 Y58.576 E12.91012
G1 X150.441 Y58.191 E12.92213
G1 X150.755 Y57.866 E12.93265
G1 X151.408 Y57.277 E12.95312
G1 X151.751 Y57.008 E12.96327
G1 X152.338 Y56.599 E12.97993
G1 X152.666 Y56.41 E12.98874
G1 X153.208 Y56.118 E13.00307
G1 X153.855 Y55.814 E13.01972
G1 X154.275 Y55.662 E13.03012
G1 X154.699 Y55.525 E13.04049
G1 X155.391 Y55.343 E13.05715
G1 X155.748 Y55.281 E13.06559
G1 X156.306 Y55.2 E13.07871
G1 X157.018 Y55.137 E13.09536
G1 X157.383 Y55.136 E13.10385
G1 X157.828 Y55.147 E13.11422
G1 X158.541 Y55.205 E13.13087
G1 X158.907 Y55.266 E13.13951
G1 X159.501 Y55.383 E13.15361
G1 X160.194 Y55.56 E13.17026
G1 X160.728 Y55.755 E13.18349
G1 X161.241 Y55.969 E13.19644
G1 X161.885 Y56.281 E13.2131
G1 X162.218 Y56.48 E13.22213
G1 X162.596 Y56.721 E13.23257
G1 X163.441 Y57.364 E13.25729
G1 X163.859 Y57.741 E13.27039
G1 X164.363 Y58.249 E13.28705
G1 X164.609 Y58.544 E13.296
G1 X164.878 Y58.887 E13.30614
G1 X165.121 Y59.219 E13.31572
G1 X165.243 Y59.397 E13.32075
G1 X165.448 Y59.715 E13.32956
G1 X166.142 Y60.868 E13.36089
G1 X167.569 Y63.163 E13.42381
G1 X169.016 Y65.352 E13.4849
G1 X170.557 Y67.543 E13.54727
G1 X170.934 Y68.149 E13.56388
G1 X171.156 Y68.554 E13.57463
G1 X171.515 Y69.328 E13.5945
G1 X171.67 Y69.73 E13.60453
G1 X171.968 Y70.746 E13.62918
G1 X172.079 Y71.287 E13.64204
G1 X172.184 Y71.994 E13.65868
G1 X172.207 Y72.394 E13.66801
G1 X172.221 Y72.894 E13.67965
G1 X172.179 Y73.827 E13.7014
G1 X172.043 Y74.974 E13.72829
G1 X172.02 Y75.148 E13.73238
G1 X171.908 Y75.914 E13.7504
G1 X171.598 Y78.54 E13.81196
G1 X171.36 Y81.21 E13.87437
G1 X171.199 Y83.823 E13.93532
G1 X171.112 Y86.501 E13.99771
G1 X171.096 Y88.271 E14.03892
G1 X171.096 Y110.499 E14.55643
G1 X171.095 Y110.59 E14.55855
G1 X171.085 Y111.296 E14.57499
G1 X171.08 Y111.475 E14.57916
G1 X171.06 Y111.949 E14.5902
G1 X171.056 Y112.041 E14.59235
G1 X170.955 Y113.826 E14.63397
G1 X170.881 Y116.437 E14.69479
G1 X170.876 Y118.671 E14.7468
G1 X171.253 Y158.128 E15.66548
G1 X171.253 Y158.215 E15.66751
G1 X171.25 Y158.947 E15.68455
G1 X171.207 Y159.661 E15.7012
G1 X171.085 Y160.366 E15.71786
G1 X170.885 Y161.053 E15.73452
G1 X170.609 Y161.713 E15.75118
G1 X170.262 Y162.338 E15.76782
G1 X169.847 Y162.92 E15.78446
G1 X169.369 Y163.453 E15.80113
G1 X169.045 Y163.754 E15.81143
G1 X168.401 Y164.313 E15.83128
G1 X168.319 Y164.384 E15.83381
G1 X162.744 Y169.06 E16.00322
G1 X162.668 Y169.122 E16.0055
G1 X162.123 Y169.565 E16.02185
G1 X161.543 Y169.985 E16.03852
G1 X160.921 Y170.337 E16.05516
G1 X160.263 Y170.617 E16.07181
G1 X159.578 Y170.823 E16.08847
G1 X158.874 Y170.95 E16.10512
G1 X158.123 Y170.999 E16.12264
G1 X157.079 Y171.005 E16.14695
G1 X156.977 Y171.005 E16.14933
G1 X156.452 Y171 E16.16155
G1 X154.077 Y171.039 E16.21685
G1 X153.927 Y171.043 E16.22035
G1 X153.212 Y171.022 E16.237
G1 X152.503 Y170.921 E16.25367
G1 X151.811 Y170.742 E16.27031
G1 X151.143 Y170.487 E16.28696
G1 X150.507 Y170.159 E16.30362
G1 X149.719 Y169.611 E16.32597
G1 X148.949 Y168.985 E16.34907
G1 X148.849 Y168.902 E16.3521
G1 X148.464 Y168.576 E16.36384
G1 X147.097 Y167.437 E16.40527
G1 X147.081 Y167.423 E16.40576
G1 X143.413 Y164.346 E16.51723
G1 X143.335 Y164.28 E16.51961
G1 X142.789 Y163.807 E16.53643
G1 X142.276 Y163.309 E16.55308
G1 X141.821 Y162.757 E16.56973
G1 X141.431 Y162.158 E16.58637
G1 X141.11 Y161.519 E16.60302
G1 X140.862 Y160.848 E16.61968
G1 X140.69 Y160.154 E16.63632
G1 X140.598 Y159.444 E16.65299
G1 X140.581 Y159.071 E16.66169
G1 X140.571 Y158.439 E16.6764
G1 X140.57 Y158.338 E16.67875
G1 X140.57 Y117.286 E17.63453
G1 X140.571 Y117.195 E17.63665
G1 X140.581 Y116.489 E17.65309
G1 X140.596 Y116.125 E17.66157
G1 X140.688 Y114.827 E17.69186
G1 X140.842 Y112.112 E17.75518
G1 X140.916 Y109.496 E17.81611
G1 X140.926 Y108.116 E17.84824
G1 X140.926 Y82.634 E18.44151
G1 X140.888 Y79.99 E18.50308
G1 X140.776 Y77.344 E18.56474
G1 X140.535 Y74.091 E18.64068
G1 X140.486 Y73.552 E18.65328
G1 X140.468 Y72.651 E18.67426
G1 X140.485 Y72.314 E18.68212
G1 X140.593 Y71.424 E18.70299
G1 X140.711 Y70.812 E18.7175
G1 X140.885 Y70.119 E18.73414
G1 X141.049 Y69.657 E18.74555
G1 X141.221 Y69.225 E18.75638
M204 S3000
M205 X10 Y10
G0 F3000 X141.741 Y69.432
M204 S1800
M205 X8 Y8
G1 F2400 X142.138 Y68.623 E18.77736
G1 X142.37 Y68.23 E18.78798
G1 X142.751 Y67.663 E18.80389
G1 X142.975 Y67.386 E18.81218
G1 X143.393 Y66.901 E18.82709
G1 X143.624 Y66.649 E18.83505
G1 X145.583 Y64.628 E18.90058
G1 X147.383 Y62.66 E18.96267
G1 X149.122 Y60.647 E19.02461
G1 X150.531 Y58.931 E19.0763
G1 X150.844 Y58.58 E19.08725
G1 X151.158 Y58.255 E19.09777
G1 X151.754 Y57.718 E19.11645
G1 X152.097 Y57.449 E19.1266
G1 X152.931 Y56.903 E19.14981
G1 X153.473 Y56.611 E19.16414
G1 X154.093 Y56.322 E19.18007
G1 X154.447 Y56.195 E19.18882
G1 X154.871 Y56.058 E19.1992
G1 X155.828 Y55.836 E19.22207
G1 X156.386 Y55.755 E19.2352
G1 X157.369 Y55.696 E19.25812
G1 X157.814 Y55.707 E19.26849
G1 X158.799 Y55.815 E19.29156
G1 X159.393 Y55.932 E19.30565
G1 X160.054 Y56.103 E19.32155
G1 X160.512 Y56.272 E19.33291
G1 X161.025 Y56.486 E19.34586
G1 X161.917 Y56.952 E19.36929
G1 X162.295 Y57.193 E19.37972
G1 X163.066 Y57.78 E19.40228
G1 X163.484 Y58.157 E19.41539
G1 X164.168 Y58.89 E19.43873
G1 X164.437 Y59.233 E19.44888
G1 X164.659 Y59.535 E19.45761
G1 X164.781 Y59.713 E19.46263
G1 X164.968 Y60.004 E19.47068
G1 X165.672 Y61.174 E19.50248
G1 X167.087 Y63.449 E19.56485
G1 X168.551 Y65.664 E19.62667
G1 X170.099 Y67.865 E19.68932
G1 X170.443 Y68.418 E19.70448
G1 X170.665 Y68.823 E19.71523
G1 X170.993 Y69.529 E19.73336
